client/public/adminPage/sidebar/home.svg

<svg width="24" height="24" viewBox="0 0 24 24" fill="none" xmlns="http://www.w3.org/2000/svg">
<g id="icon / ionicons / outline / storefront-outline">
<path id="Vector (Stroke)" fill-rule="evenodd" clip-rule="evenodd" d="M21 10.5C21.4142 10.5 21.75 10.8358 21.75 11.25V21C21.75 21.4142 21.4142 21.75 21 21.75C20.5858 21.75 20.25 21.4142 20.25 21V11.25C20.25 10.8358 20.5858 10.5 21 10.5Z" fill="white"/>
<path id="Vector (Stroke)_2" fill-rule="evenodd" clip-rule="evenodd" d="M3 10.5C3.41421 10.5 3.75 10.8358 3.75 11.25V21C3.75 21.4142 3.41421 21.75 3 21.75C2.58579 21.75 2.25 21.4142 2.25 21V11.25C2.25 10.8358 2.58579 10.5 3 10.5Z" fill="white"/>
<path id="Vector (Stroke)_3" fill-rule="evenodd" clip-rule="evenodd" d="M3.04941 3.36535C3.57925 2.20923 4.78461 1.5 6.07169 1.5H17.9283C19.2153 1.5 20.4207 2.20923 20.9505 3.36535L20.9506 3.3655L22.9801 7.79671C22.9802 7.79683 22.9802 7.79695 22.9803 7.79707C23.9184 9.84311 22.3292 12.0243 20.1097 12.0934C20.102 12.0936 20.0942 12.0938 20.0864 12.0938H19.995C18.9414 12.0938 17.9662 11.6361 17.33 10.8981C16.6937 11.6362 15.7183 12.0938 14.6648 12.0938C13.6133 12.0938 12.6498 11.613 12.0163 10.8801C11.3813 11.6285 10.3999 12.0938 9.33747 12.0938C8.2771 12.0938 7.30602 11.6048 6.67268 10.8614C6.03943 11.6052 5.06805 12.0938 4.00732 12.0938H3.91357C3.90592 12.0938 3.89826 12.0936 3.89062 12.0934C1.6703 12.0254 0.0817742 9.84364 1.01965 7.79707C1.01968 7.797 1.01971 7.79694 1.01974 7.79688L3.04941 3.36535ZM7.42216 8.89547C7.42216 9.70454 8.23616 10.5938 9.33747 10.5938C10.4554 10.5938 11.25 9.77583 11.25 8.89547C11.25 8.48126 11.5858 8.14547 12 8.14547C12.4142 8.14547 12.75 8.48126 12.75 8.89547C12.75 9.7047 13.5637 10.5938 14.6648 10.5938C15.7838 10.5938 16.5801 9.77484 16.5801 8.89547C16.5801 8.48126 16.9159 8.14547 17.3301 8.14547C17.7443 8.14547 18.0801 8.48126 18.0801 8.89547C18.0801 9.77501 18.8762 10.5938 19.995 10.5938H20.0738C21.3684 10.5469 22.0439 9.35362 21.6167 8.42204L21.6165 8.42168L19.5869 3.99028C19.5869 3.99023 19.5869 3.99017 19.5868 3.99012C19.3235 3.4157 18.6839 3 17.9283 3H6.07169C5.31603 3 4.67644 3.4157 4.41311 3.99012C4.41308 3.99017 4.41306 3.99023 4.41303 3.99028L2.38333 8.42187C1.95569 9.35488 2.63195 10.5478 3.9259 10.5938H4.00732C5.10892 10.5938 5.92216 9.70661 5.92216 8.89547C5.92216 8.48126 6.25795 8.14547 6.67216 8.14547C7.08638 8.14547 7.42216 8.48126 7.42216 8.89547Z" fill="white"/>
<path id="Vector (Stroke)_4" fill-rule="evenodd" clip-rule="evenodd" d="M0.75 21.75C0.75 21.3358 1.08579 21 1.5 21H22.5C22.9142 21 23.25 21.3358 23.25 21.75C23.25 22.1642 22.9142 22.5 22.5 22.5H1.5C1.08579 22.5 0.75 22.1642 0.75 21.75Z" fill="white"/>
<path id="Vector (Stroke)_5" fill-rule="evenodd" clip-rule="evenodd" d="M6.375 14.25C6.27554 14.25 6.18016 14.2895 6.10983 14.3598C6.03951 14.4302 6 14.5255 6 14.625V18H10.5V14.625C10.5 14.5255 10.4605 14.4302 10.3902 14.3598C10.3198 14.2895 10.2245 14.25 10.125 14.25H6.375ZM5.04917 13.2992C5.4008 12.9475 5.87772 12.75 6.375 12.75H10.125C10.6223 12.75 11.0992 12.9475 11.4508 13.2992C11.8025 13.6508 12 14.1277 12 14.625V18.75C12 19.1642 11.6642 19.5 11.25 19.5H5.25C4.83579 19.5 4.5 19.1642 4.5 18.75V14.625C4.5 14.1277 4.69754 13.6508 5.04917 13.2992Z" fill="white"/>
<path id="Vector (Stroke)_6" fill-rule="evenodd" clip-rule="evenodd" d="M14.625 14.25C14.5255 14.25 14.4302 14.2895 14.3598 14.3598C14.2895 14.4302 14.25 14.5255 14.25 14.625V21.75C14.25 22.1642 13.9142 22.5 13.5 22.5C13.0858 22.5 12.75 22.1642 12.75 21.75V14.625C12.75 14.1277 12.9475 13.6508 13.2992 13.2992C13.6508 12.9475 14.1277 12.75 14.625 12.75H17.625C18.1223 12.75 18.5992 12.9475 18.9508 13.2992C19.3025 13.6508 19.5 14.1277 19.5 14.625V21.75C19.5 22.1642 19.1642 22.5 18.75 22.5C18.3358 22.5 18 22.1642 18 21.75V14.625C18 14.5255 17.9605 14.4302 17.8902 14.3598C17.8198 14.2895 17.7245 14.25 17.625 14.25H14.625Z" fill="white"/>
</g>
</svg>

<?xml version="1.0" encoding="utf-8"?>
<!-- Generator: Adobe Illustrator 25.4.0, SVG Export Plug-In . SVG Version: 6.00 Build 0)  -->
<svg version="1.1" id="Layer_1" xmlns="http://www.w3.org/2000/svg" xmlns:xlink="http://www.w3.org/1999/xlink" x="0px" y="0px"
	 viewBox="0 0 24 24" style="enable-background:new 0 0 24 24;" xml:space="preserve">
<style type="text/css">
	.st0{fill-rule:evenodd;clip-rule:evenodd;fill:#6E7F8D;}
</style>
<g id="icon__x2F__ionicons__x2F__outline__x2F__storefront-outline">
	<path id="Vector__x28_Stroke_x29_" class="st0" d="M21,10.5c0.4,0,0.8,0.3,0.8,0.8V21c0,0.4-0.3,0.8-0.8,0.8s-0.8-0.3-0.8-0.8v-9.7
		C20.2,10.8,20.6,10.5,21,10.5z"/>
	<path id="Vector__x28_Stroke_x29__x5F_2" class="st0" d="M3,10.5c0.4,0,0.8,0.3,0.8,0.8V21c0,0.4-0.3,0.8-0.8,0.8S2.2,21.4,2.2,21
		v-9.7C2.2,10.8,2.6,10.5,3,10.5z"/>
	<path id="Vector__x28_Stroke_x29__x5F_3" class="st0" d="M3,3.4c0.5-1.2,1.7-1.9,3-1.9h11.9c1.3,0,2.5,0.7,3,1.9l0,0l2,4.4
		c0,0,0,0,0,0c0.9,2-0.7,4.2-2.9,4.3c0,0,0,0,0,0H20c-1.1,0-2-0.5-2.7-1.2c-0.6,0.7-1.6,1.2-2.7,1.2c-1.1,0-2-0.5-2.6-1.2
		c-0.6,0.7-1.6,1.2-2.7,1.2c-1.1,0-2-0.5-2.7-1.2C6,11.6,5.1,12.1,4,12.1H3.9c0,0,0,0,0,0C1.7,12,0.1,9.8,1,7.8c0,0,0,0,0,0L3,3.4z
		 M7.4,8.9c0,0.8,0.8,1.7,1.9,1.7c1.1,0,1.9-0.8,1.9-1.7c0-0.4,0.3-0.8,0.8-0.8s0.8,0.3,0.8,0.8c0,0.8,0.8,1.7,1.9,1.7
		c1.1,0,1.9-0.8,1.9-1.7c0-0.4,0.3-0.8,0.8-0.8c0.4,0,0.8,0.3,0.8,0.8c0,0.9,0.8,1.7,1.9,1.7h0.1c1.3,0,2-1.2,1.5-2.2l0,0l-2-4.4
		c0,0,0,0,0,0c-0.3-0.6-0.9-1-1.7-1H6.1C5.3,3,4.7,3.4,4.4,4c0,0,0,0,0,0l-2,4.4C2,9.4,2.6,10.5,3.9,10.6H4c1.1,0,1.9-0.9,1.9-1.7
		c0-0.4,0.3-0.8,0.8-0.8C7.1,8.1,7.4,8.5,7.4,8.9z"/>
	<path id="Vector__x28_Stroke_x29__x5F_4" class="st0" d="M0.8,21.7c0-0.4,0.3-0.8,0.8-0.8h21c0.4,0,0.8,0.3,0.8,0.8
		s-0.3,0.8-0.8,0.8h-21C1.1,22.5,0.8,22.2,0.8,21.7z"/>
	<path id="Vector__x28_Stroke_x29__x5F_5" class="st0" d="M6.4,14.2c-0.1,0-0.2,0-0.3,0.1C6,14.4,6,14.5,6,14.6V18h4.5v-3.4
		c0-0.1,0-0.2-0.1-0.3c-0.1-0.1-0.2-0.1-0.3-0.1H6.4z M5,13.3c0.4-0.4,0.8-0.5,1.3-0.5h3.8c0.5,0,1,0.2,1.3,0.5
		c0.4,0.4,0.5,0.8,0.5,1.3v4.1c0,0.4-0.3,0.8-0.8,0.8h-6c-0.4,0-0.8-0.3-0.8-0.8v-4.1C4.5,14.1,4.7,13.7,5,13.3z"/>
	<path id="Vector__x28_Stroke_x29__x5F_6" class="st0" d="M14.6,14.2c-0.1,0-0.2,0-0.3,0.1c-0.1,0.1-0.1,0.2-0.1,0.3v7.1
		c0,0.4-0.3,0.8-0.8,0.8s-0.8-0.3-0.8-0.8v-7.1c0-0.5,0.2-1,0.5-1.3c0.4-0.4,0.8-0.5,1.3-0.5h3c0.5,0,1,0.2,1.3,0.5
		c0.4,0.4,0.5,0.8,0.5,1.3v7.1c0,0.4-0.3,0.8-0.8,0.8S18,22.2,18,21.7v-7.1c0-0.1,0-0.2-0.1-0.3c-0.1-0.1-0.2-0.1-0.3-0.1H14.6z"/>
</g>
</svg>
